X:99
T: Verschlafener Jaeger
N: Q0152P
O: Mitteleuropa, Deutschland (BRD) , Bayern, Niederbayern
N: Anhaengsel an der dritten Zeile.
R: Ballade, Verfuehrung, Versagen, Spott
M: 6/8
L: 1/16
K: C
G2 | c4c2c2B2A2 | G4E2E4
G2 | c3cc2c2B2A2 | G4E2E4
EG | G4F2D2G2B2 | c2e2e2e2a2
g2 | f4B2B2A2B2 | c6-c4

@@@ Tune index: 1702
